svg/Frame3.svg

<svg width="20" height="20" viewBox="0 0 20 20" fill="none" xmlns="http://www.w3.org/2000/svg"><g filter="url(#filter0_d_326_19041)"><g><mask id="path-2-outside-1_326_19041" maskUnits="userSpaceOnUse" x="-16" y="-85" width="1440" height="961" fill="black"><path d="M-16 -84H1424V876H-16V-84Z"/></mask><path d="M-16 -84H1424V876H-16V-84Z" fill="white"/><path d="M-16 -84H330V876H-16V-84Z" fill="#FAFAF9"/><path d="M330 -84H329.5V876H330H330.5V-84H330Z" fill="#D4D4D4"/><path d="M2.08105 3.33333C2.08105 2.8731 2.45415 2.5 2.91439 2.5H7.91439L9.99772 5H17.0811C17.5413 5 17.9144 5.37308 17.9144 5.83333V16.6667C17.9144 17.1269 17.5413 17.5 17.0811 17.5H2.91439C2.45415 17.5 2.08105 17.1269 2.08105 16.6667V3.33333Z" stroke="#A3A3A3" stroke-width="1.25" stroke-linejoin="round"/><path d="M12.5 10.8277L10 8.33325L7.5 10.8333" stroke="#A3A3A3" stroke-width="1.25" stroke-linecap="round" stroke-linejoin="round"/><path d="M10 8.33325V14.1666" stroke="#A3A3A3" stroke-width="1.25" stroke-linecap="round" stroke-linejoin="round"/><path d="M-16 -84V-83H1424V-84V-85H-16V-84Z" fill="#E7E5E4" mask="url(#path-2-outside-1_326_19041)"/></g></g><defs><filter id="filter0_d_326_19041" x="-20" y="-85" width="1448" height="969" filterUnits="userSpaceOnUse" color-interpolation-filters="sRGB"><feFlood flood-opacity="0" result="BackgroundImageFix"/><feColorMatrix in="SourceAlpha" type="matrix" values="0 0 0 0 0 0 0 0 0 0 0 0 0 0 0 0 0 0 127 0" result="hardAlpha"/><feOffset dy="4"/><feGaussianBlur stdDeviation="2"/><feComposite in2="hardAlpha" operator="out"/><feColorMatrix type="matrix" values="0 0 0 0 0 0 0 0 0 0 0 0 0 0 0 0 0 0 0.02 0"/><feBlend mode="normal" in2="BackgroundImageFix" result="effect1_dropShadow_326_19041"/><feBlend mode="normal" in="SourceGraphic" in2="effect1_dropShadow_326_19041" result="shape"/></filter><clipPath id="clip0_326_19041"></clipPath><clipPath id="clip1_326_19041"><path d="M-16 -84H1424V876H-16V-84Z" fill="white"/></clipPath></defs></svg>

<svg fill="none" viewBox="0 0 20 20"><g filter="url(#a)"><mask id="b" width="1440" height="961" x="-16" y="-85" fill="black" maskUnits="userSpaceOnUse"/><path fill="#FAFAF9" d="M-16-84h346v960H-16z"/><path fill="#D4D4D4" d="M330-84h-.5v960h1V-84z"/><path stroke="#A3A3A3" stroke-linejoin="round" stroke-width="1.25" d="M2.081 3.333c0-.46.373-.833.833-.833h5L9.998 5h7.083c.46 0 .833.373.833.833v10.834c0 .46-.373.833-.833.833H2.914a.833.833 0 0 1-.833-.833z"/><path stroke="#A3A3A3" stroke-linecap="round" stroke-linejoin="round" stroke-width="1.25" d="M12.5 10.828 10 8.333l-2.5 2.5"/><path stroke="#A3A3A3" stroke-linecap="round" stroke-linejoin="round" stroke-width="1.25" d="M10 8.333v5.834"/><path fill="#E7E5E4" d="M-16-84v1h1440v-2H-16z" mask="url(#b)"/></g><defs><filter id="a" width="1448" height="969" x="-20" y="-85" color-interpolation-filters="sRGB" filterUnits="userSpaceOnUse"><feFlood flood-opacity="0" result="BackgroundImageFix"/><feColorMatrix in="SourceAlpha" result="hardAlpha" type="matrix" values="0 0 0 0 0 0 0 0 0 0 0 0 0 0 0 0 0 0 127 0"/><feOffset dy="4"/><feGaussianBlur stdDeviation="2"/><feComposite in2="hardAlpha" operator="out"/><feColorMatrix type="matrix" values="0 0 0 0 0 0 0 0 0 0 0 0 0 0 0 0 0 0 0.02 0"/><feBlend in2="BackgroundImageFix" mode="normal" result="effect1_dropShadow_326_19041"/><feBlend in="SourceGraphic" in2="effect1_dropShadow_326_19041" mode="normal" result="shape"/></filter></defs></svg>
